src/assets/chainlink.svg

<svg width="122" height="40" viewBox="0 0 122 40" fill="none" xmlns="http://www.w3.org/2000/svg">
<g clip-path="url(#clip0)">
<path d="M41.8838 19.3925C41.8514 18.5044 41.9998 17.6189 42.3202 16.7892C42.6406 15.9595 43.1264 15.2028 43.7483 14.5645C44.3702 13.9262 45.1154 13.4194 45.9392 13.0747C46.7631 12.7299 47.6485 12.5543 48.5423 12.5583C51.9101 12.5583 53.9034 14.5231 54.5048 16.8297L52.3913 17.5387C52.2053 16.6788 51.7137 15.9143 51.0068 15.3855C50.2998 14.8567 49.4248 14.5991 48.5423 14.6598C46.36 14.6598 44.1778 16.2402 44.1778 19.4352C44.1778 22.6302 46.3085 24.1508 48.568 24.1508C49.4554 24.1764 50.3258 23.9049 51.0394 23.3797C51.753 22.8545 52.2684 22.1062 52.503 21.2548L54.5563 21.9212C54.2048 23.221 53.4165 24.362 52.3224 25.1546C51.2283 25.9472 49.8943 26.3436 48.5423 26.2779C47.6404 26.2947 46.7448 26.1261 45.9116 25.7825C45.0784 25.4389 44.3256 24.9279 43.7005 24.2814C43.0753 23.6349 42.5912 22.8669 42.2786 22.0256C41.966 21.1843 41.8316 20.2879 41.8838 19.3925Z" fill="#375BD2"/>
<path d="M58.6287 25.9619H56.4637V12.5241H58.6287V17.795C58.9441 17.4242 59.3398 17.1294 59.7862 16.9326C60.2327 16.7358 60.7182 16.6422 61.2062 16.6588C63.4486 16.6588 64.5311 18.2563 64.5311 20.2468V25.9619H62.4262V20.6141C62.4657 20.354 62.4457 20.0883 62.3677 19.8369C62.2897 19.5855 62.1558 19.3548 61.9759 19.1619C61.7959 18.9691 61.5746 18.819 61.3283 18.7228C61.082 18.6267 60.8171 18.5869 60.5532 18.6066C60.2914 18.6068 60.0325 18.6611 59.7928 18.766C59.5532 18.871 59.3381 19.0243 59.1612 19.2163C58.9843 19.4082 58.8495 19.6346 58.7652 19.8812C58.6809 20.1277 58.6491 20.3889 58.6717 20.6483L58.6287 25.9619Z" fill="#375BD2"/>
<path d="M69.3682 20.785L71.6965 20.4262C72.2206 20.3578 72.3666 20.093 72.3666 19.7769C72.3666 19.0166 71.8511 18.4015 70.6483 18.4015C70.4164 18.3817 70.1828 18.409 69.9618 18.4816C69.7407 18.5543 69.5368 18.6708 69.3625 18.8242C69.1881 18.9776 69.047 19.1646 68.9475 19.3739C68.8481 19.5832 68.7924 19.8104 68.784 20.0417L66.8079 19.5975C66.9711 18.0342 68.3973 16.6417 70.6311 16.6417C73.432 16.6417 74.4973 18.2221 74.4973 20.0588V24.5438C74.4924 25.0302 74.5297 25.5161 74.609 25.996H72.59C72.5207 25.6157 72.4919 25.2291 72.5041 24.8428C72.2025 25.3024 71.7855 25.6758 71.2943 25.926C70.803 26.1762 70.2546 26.2946 69.7032 26.2694C69.3189 26.3008 68.932 26.2544 68.5662 26.133C68.2004 26.0116 67.8631 25.8176 67.5748 25.5629C67.2865 25.3081 67.0531 24.9979 66.8888 24.651C66.7245 24.304 66.6327 23.9275 66.6189 23.5443C66.6189 21.8955 67.8131 21.0071 69.3682 20.785ZM72.3666 22.2372V21.8272L69.9954 22.1774C69.6731 22.1884 69.3675 22.3223 69.142 22.5513C68.9164 22.7804 68.7882 23.087 68.784 23.4076C68.7867 23.5731 68.8239 23.7362 68.8933 23.8866C68.9627 24.0371 69.0628 24.1715 69.1871 24.2815C69.3115 24.3915 69.4575 24.4747 69.6158 24.5257C69.7742 24.5767 69.9414 24.5945 70.1071 24.5779C70.4199 24.6097 70.736 24.5701 71.0312 24.4622C71.3264 24.3544 71.5931 24.181 71.8109 23.9554C72.0287 23.7298 72.1919 23.4578 72.2882 23.1601C72.3845 22.8624 72.4113 22.5468 72.3666 22.2372Z" fill="#375BD2"/>
<path d="M78.1745 12.3362C78.3621 12.3339 78.5483 12.3687 78.7223 12.4386C78.8963 12.5084 79.0546 12.6118 79.188 12.743C79.3215 12.8741 79.4275 13.0302 79.4998 13.2024C79.5721 13.3745 79.6093 13.5592 79.6093 13.7458C79.6093 14.1173 79.4609 14.4737 79.1966 14.7364C78.9324 14.9992 78.574 15.1468 78.2003 15.1468C77.8266 15.1468 77.4682 14.9992 77.204 14.7364C76.9397 14.4737 76.7913 14.1173 76.7913 13.7458C76.7912 13.3778 76.9358 13.0243 77.1943 12.7609C77.4527 12.4976 77.8045 12.3451 78.1745 12.3362ZM77.1178 26.0046V16.9237H79.2571V25.9619L77.1178 26.0046Z" fill="#375BD2"/>
<path d="M84.223 25.9619H82.0579V16.9237H84.1714V18.1282C84.4457 17.6658 84.8402 17.2853 85.3133 17.0268C85.7865 16.7682 86.321 16.6411 86.8606 16.6588C89.0772 16.6588 90.1425 18.2563 90.1425 20.2468V25.9619H87.9775V20.6141C87.9775 19.5036 87.4706 18.6066 86.1131 18.6066C85.8429 18.6082 85.5761 18.6667 85.3302 18.7781C85.0844 18.8895 84.865 19.0514 84.6865 19.253C84.508 19.4547 84.3744 19.6917 84.2945 19.9484C84.2146 20.205 84.1903 20.4756 84.223 20.7423V25.9619Z" fill="#375BD2"/>
<path d="M92.7802 25.9619V12.5241H94.9452V25.9619H92.7802Z" fill="#375BD2"/>
<path d="M98.8114 12.3362C99.1874 12.3362 99.548 12.4847 99.8138 12.7491C100.08 13.0134 100.229 13.3719 100.229 13.7458C100.227 14.0221 100.143 14.2918 99.988 14.5209C99.8325 14.75 99.6124 14.9282 99.3553 15.0332C99.0981 15.1382 98.8156 15.1652 98.543 15.1109C98.2705 15.0565 98.0202 14.9233 97.8237 14.7278C97.6272 14.5324 97.4932 14.2836 97.4385 14.0126C97.3839 13.7416 97.4111 13.4607 97.5166 13.205C97.6222 12.9494 97.8015 12.7305 98.0319 12.5759C98.2623 12.4213 98.5335 12.3379 98.8114 12.3362ZM97.7461 26.0046V16.9237H99.8939V25.9619L97.7461 26.0046Z" fill="#375BD2"/>
<path d="M104.86 25.9619H102.695V16.9237H104.8V18.1282C105.075 17.667 105.47 17.2876 105.943 17.0292C106.416 16.7708 106.95 16.643 107.489 16.6588C109.714 16.6588 110.779 18.2563 110.779 20.2468V25.9619H108.614V20.6141C108.654 20.354 108.634 20.0883 108.556 19.8369C108.478 19.5855 108.344 19.3548 108.164 19.1619C107.984 18.9691 107.763 18.819 107.516 18.7228C107.27 18.6267 107.005 18.5869 106.741 18.6066C106.472 18.6081 106.205 18.6665 105.96 18.778C105.714 18.8895 105.495 19.0515 105.317 19.2534C105.139 19.4552 105.007 19.6923 104.928 19.949C104.849 20.2057 104.826 20.476 104.86 20.7423V25.9619Z" fill="#375BD2"/>
<path d="M118.185 20.7423L122 25.9619H119.345L116.673 22.2372L115.556 23.4076V25.9704H113.408V12.5241H115.556V20.5799L119.045 16.9237H121.923L118.185 20.7423Z" fill="#375BD2"/>
<path d="M16.2294 8.89348L25.5942 14.2412V24.9794L16.2552 30.3614L6.89042 25.0222V14.2839L16.2294 8.89348ZM16.2294 1L12.7928 2.98191L3.43662 8.37238L0 10.3543V14.301V25.0307V28.9774L3.43662 30.9423L12.8014 36.29L16.238 38.2548L19.6747 36.2729L29.0137 30.8825L32.4503 28.9091V24.9624V14.2241V10.2774L29.0137 8.31258L19.6489 2.96483L16.2123 1H16.2294Z" fill="#375BD2"/>
</g>
<defs>
<clipPath id="clip0">
<rect width="122" height="40" fill="white"/>
</clipPath>
</defs>
</svg>

<svg xmlns="http://www.w3.org/2000/svg" width="122" height="40" fill="none" xmlns:v="https://vecta.io/nano"><g clip-path="url(#A)" fill="#375bd2"><path d="M41.884 19.393a6.56 6.56 0 0 1 .436-2.603 6.59 6.59 0 0 1 1.428-2.225c.622-.638 1.367-1.145 2.191-1.49a6.66 6.66 0 0 1 2.603-.516c3.368 0 5.361 1.965 5.963 4.271l-2.114.709c-.186-.86-.678-1.624-1.385-2.153s-1.582-.786-2.465-.726c-2.182 0-4.364 1.58-4.364 4.775s2.131 4.716 4.39 4.716c.887.026 1.758-.246 2.471-.771a3.94 3.94 0 0 0 1.464-2.125l2.053.666c-.352 1.3-1.14 2.441-2.234 3.233a5.95 5.95 0 0 1-3.78 1.123 6.58 6.58 0 0 1-2.631-.495 6.56 6.56 0 0 1-2.211-1.501 6.51 6.51 0 0 1-1.422-2.256c-.313-.841-.447-1.738-.395-2.633zm16.745 6.569h-2.165V12.524h2.165v5.271a3.23 3.23 0 0 1 1.157-.862c.447-.197.932-.29 1.42-.274 2.242 0 3.325 1.598 3.325 3.588v5.715h-2.105v-5.348a1.74 1.74 0 0 0-.059-.777 1.75 1.75 0 0 0-.392-.675c-.18-.193-.401-.343-.648-.439a1.77 1.77 0 0 0-.775-.116 1.9 1.9 0 0 0-.76.159 1.89 1.89 0 0 0-.632.45 1.87 1.87 0 0 0-.489 1.432l-.043 5.314zm10.739-5.177l2.328-.359c.524-.068.67-.333.67-.649 0-.76-.516-1.375-1.718-1.375a1.73 1.73 0 0 0-.687.08 1.72 1.72 0 0 0-.599.343 1.71 1.71 0 0 0-.415.55 1.7 1.7 0 0 0-.163.668l-1.976-.444c.163-1.563 1.589-2.956 3.823-2.956 2.801 0 3.866 1.58 3.866 3.417v4.485a8.39 8.39 0 0 0 .112 1.452H72.59a5.47 5.47 0 0 1-.086-1.153c-.302.46-.719.833-1.21 1.083a3.18 3.18 0 0 1-1.591.343 2.87 2.87 0 0 1-1.137-.136 2.84 2.84 0 0 1-1.677-1.482c-.164-.347-.256-.724-.27-1.107 0-1.649 1.194-2.537 2.749-2.759zm2.998 1.452v-.41l-2.371.35a1.26 1.26 0 0 0-.853.374 1.24 1.24 0 0 0-.358.856 1.19 1.19 0 0 0 .403.874c.125.11.27.193.429.244a1.21 1.21 0 0 0 .491.052 2.08 2.08 0 0 0 .924-.116 2.07 2.07 0 0 0 .78-.507c.218-.226.381-.498.477-.795s.123-.613.078-.923zm5.809-9.901c.188-.002.374.033.548.102s.332.173.466.304a1.41 1.41 0 0 1 .422 1.002c0 .372-.148.728-.413.991s-.623.41-.996.41-.732-.148-.996-.41-.413-.619-.413-.991a1.4 1.4 0 0 1 .403-.985 1.42 1.42 0 0 1 .98-.425zm-1.057 13.668v-9.081h2.139v9.038l-2.139.043zm7.105-.042h-2.165v-9.038h2.114v1.204a3 3 0 0 1 1.142-1.101 3.02 3.02 0 0 1 1.547-.368c2.217 0 3.282 1.598 3.282 3.588v5.715h-2.165v-5.348c0-1.111-.507-2.008-1.864-2.008a1.94 1.94 0 0 0-.783.171 1.91 1.91 0 0 0-.644.475c-.179.202-.312.439-.392.695s-.104.527-.072.794v5.22zm8.557 0V12.524h2.165v13.438H92.78zm6.031-13.626a1.42 1.42 0 0 1 1.002.413c.266.264.415.623.415.997a1.4 1.4 0 0 1-.241.775 1.41 1.41 0 0 1-.633.512 1.42 1.42 0 0 1-.812.078 1.41 1.41 0 0 1-.719-.383 1.4 1.4 0 0 1-.385-.715c-.055-.271-.027-.552.078-.808s.285-.475.515-.629.502-.238.78-.24zm-1.065 13.668v-9.081h2.148v9.038l-2.148.043zm7.114-.042h-2.165v-9.038h2.105v1.204a3.01 3.01 0 0 1 1.143-1.099 3.04 3.04 0 0 1 1.546-.37c2.225 0 3.29 1.598 3.29 3.588v5.715h-2.165v-5.348a1.73 1.73 0 0 0-.058-.777 1.75 1.75 0 0 0-.392-.675 1.76 1.76 0 0 0-.648-.439 1.77 1.77 0 0 0-.775-.116 1.93 1.93 0 0 0-.781.171 1.92 1.92 0 0 0-.643.475 1.89 1.89 0 0 0-.389.696c-.079.257-.102.527-.068.793v5.22zm13.325-5.22l3.815 5.22h-2.655l-2.672-3.725-1.117 1.17v2.563h-2.148V12.524h2.148v8.056l3.489-3.656h2.878l-3.738 3.819zM16.229 8.893l9.365 5.348v10.738l-9.339 5.382-9.365-5.339V14.284l9.339-5.39zm0-7.893l-3.437 1.982-9.356 5.39L0 10.354v3.947 10.73 3.947l3.437 1.965 9.365 5.348 3.437 1.965 3.437-1.982 9.339-5.39 3.437-1.973v-3.947-10.738-3.947l-3.437-1.965-9.365-5.348L16.212 1h.017z"/></g><defs><clipPath id="A"><path fill="#fff" d="M0 0h122v40H0z"/></clipPath></defs></svg>
